X:1
T:God’s Word
T:God’s Word
T:William James Kirkpatrick
T:Leander Whitcomb Munhall, 1889
T:Public Domain Courtesy of the Cyber Hymnal™
T:Public Domain Courtesy of the Cyber Hymnal™
C:William James Kirkpatrick
Z:Public Domain
Z:Courtesy of the Cyber Hymnal™
%%score ( 1 2 ) ( 3 4 )
L:1/8
Q:1/4=130
M:6/4
K:Ab
V:1 treble 
V:2 treble 
V:3 bass 
V:4 bass 
V:1
 [CE]2 | [CE]2 [DF]2 [CE]2 [CE]2 [CA]2 [CA]2 | [EB]2 [EA]2 [EB]2 [Ec]4 [Ec]2 | %3
w: 1.~The|Bi- ble was giv- en That|lost men may know The|
w: 2.~It|then points to Je- sus, Re-|deem- er of all, The|
w: 3.~It|tells us of Hea- ven, The|home of the soul, And|
 [Ee]2 [Ed]2 [Ec]2 [Ec]2 [DB]2 [CA]2 | [=DA]2 [DG]2 [DA]2 [EB]4 [_DE]2 | %5
w: way in- to Hea- ven, And|shun hell be- low. It|
w: might- y who frees us From|curse of the fall. It|
w: crowns to be giv- en, While|ag- es shall roll. Oh,|
 [CE]2 [DF]2 [CE]2 [CE]2 [CA]2 [CA]2 | [EB]2 [EA]2 [EB]2 [Ec]4 [Ec]2 | %7
w: does not de- ceive us; Is|faith- ful to tell Of|
w: shows us our du- ty To|God and to man In|
w: Hea- ven- born trea- sure! We|would have the more, In|
 [Ee]2 [Ed]2 [Ec]2 [Fc]2 [FB]2 [FA]2 | [EG]2 [Ec]2 [DB]2 [CA]4 ||"^Refrain" [CA]2 | %10
w: sin, death, and judg- ment, And|tor- ments of hell.|No|
w: words of great beau- ty, And|know them all can.||
w: full- ness of mea- sure And|rich- ness of store.||
 [DB]8 [Ec]2 [DB]2 | [CA]6 [CE]4 E2 | [Gd]8 [Ge]2 [Gd]2 | [Ec]6- [Ec]4 (cd) | [Ae]8 [Ad]2 [Ac]2 | %15
w: word ev- er|spo- ken By|God to His|own * Was *|ev- er yet|
w: |||||
w: |||||
 [FB]6 [DF]4 [FA]2 | [EG]8 [Ec]2 [DB]2 | [CA]6- [CA]4 |] %18
w: bro- ken; ’Tis|firm as His|throne. *|
w: |||
w: |||
V:2
 x2 | x12 | x12 | x12 | x12 | x12 | x12 | x12 | x10 || x2 | x12 | x10 E2 | x12 | x10 E2 | x12 | %15
 x12 | x12 | x10 |] %18
V:3
 [A,,A,]2 | [A,,A,]2 [A,,A,]2 [A,,A,]2 [A,,A,]2 [A,,E,]2 [A,,E,]2 | %2
w: ~|~ ~ ~ ~ ~ ~|
 [E,G,]2 [E,F,]2 [E,G,]2 A,4 A,2 | [A,C]2 [G,B,]2 A,2 [E,A,]2 [E,G,]2 [F,A,]2 | %4
w: ~ ~ ~ ~ ~|~ ~ ~ ~ ~ ~|
 [B,,F,]2 [B,,B,]2 [B,,A,]2 [E,G,]4 [E,G,]2 | %5
w: ~ ~ ~ ~ ~|
 [A,,A,]2 [A,,A,]2 [A,,A,]2 [A,,A,]2 [A,,E,]2 [A,,E,]2 | [E,G,]2 [E,F,]2 [E,G,]2 A,4 A,2 | %7
w: ~ ~ ~ ~ ~ ~|~ ~ ~ ~ ~|
 [A,C]2 [A,B,]2 A,2 [D,A,]2 [D,D]2 [D,D]2 | [E,B,]2 [E,A,]2 [E,G,]2 [A,,A,]4 || [A,,A,]2 | %10
w: ~ ~ ~ ~ ~ ~|~ ~ ~ ~|No|
 [E,G,]2 [E,G,]2 [E,G,]2 [E,G,]2 [E,A,]2 [E,G,]2 | [A,,A,]2 [A,,E,]2 [A,,E,]2 [A,,A,]4 [A,C]2 | %12
w: word ev- er spo- ken By|God to His own, No|
 [E,B,]2 [E,B,]2 [E,B,]2 [E,B,]2 [E,C]2 [E,B,]2 | A,2 A,2 A,2 A,4 (A,B,) | %14
w: word ev- er spo- ken By|God to His own Was *|
 [A,C]2 [A,C]2 [A,C]2 [A,C]2 [A,F]2 [A,E]2 | [D,D]2 [D,D]2 [D,D]2 [D,B,]2 [D,B,]2 [D,B,]2 | %16
w: ev- er yet bro- ken, Was|ev- er yet bro- ken,; ’Tis|
 [E,B,]4 [E,B,]2 [E,B,]2 [E,A,]2 [E,G,]2 | [A,,A,]6- [A,,A,]4 |] %18
w: firm, ’tis firm as His|throne. *|
V:4
 x2 | x12 | x6 A,4 A,2 | x4 A,2 x6 | x12 | x12 | x6 A,4 x2 | x4 A,2 x6 | x10 || x2 | x12 | x12 | %12
 x12 | A,2 A,2 A,2 A,4 A,2 | x12 | x12 | x12 | x10 |] %18

